dist/svgs/unicons/line/store-alt.svg

<svg xmlns="http://www.w3.org/2000/svg" viewBox="0 0 24 24"><path d="M22 2H2a1 1 0 00-1 1v4a3 3 0 002 2.82V21a1 1 0 001 1h16a1 1 0 001-1V9.82A3 3 0 0023 7V3a1 1 0 00-1-1zm-7 2h2v3a1 1 0 01-2 0zm-4 0h2v3a1 1 0 01-2 0zM7 4h2v3a1 1 0 01-2 0zM4 8a1 1 0 01-1-1V4h2v3a1 1 0 01-1 1zm10 12h-4v-4a2 2 0 014 0zm5 0h-3v-4a4 4 0 00-8 0v4H5V9.82a3.17 3.17 0 001-.6 3 3 0 004 0 3 3 0 004 0 3 3 0 004 0 3.17 3.17 0 001 .6zm2-13a1 1 0 01-2 0V4h2z"/></svg>

<svg xmlns="http://www.w3.org/2000/svg" viewBox="0 0 24 24"><path d="M22,2H2A1,1,0,0,0,1,3V7A3,3,0,0,0,3,9.82V21a1,1,0,0,0,1,1H20a1,1,0,0,0,1-1V9.82A3,3,0,0,0,23,7V3A1,1,0,0,0,22,2ZM15,4h2V7a1,1,0,0,1-2,0ZM11,4h2V7a1,1,0,0,1-2,0ZM7,4H9V7A1,1,0,0,1,7,7ZM4,8A1,1,0,0,1,3,7V4H5V7A1,1,0,0,1,4,8ZM14,20H10V16a2,2,0,0,1,4,0Zm5,0H16V16a4,4,0,0,0-8,0v4H5V9.82a3.17,3.17,0,0,0,1-.6,3,3,0,0,0,4,0,3,3,0,0,0,4,0,3,3,0,0,0,4,0,3.17,3.17,0,0,0,1,.6ZM21,7a1,1,0,0,1-2,0V4h2Z"/></svg>
